src/resources/ephy-audio-muted-symbolic.svg

<?xml version="1.0" encoding="UTF-8" standalone="no"?>
<svg
   xmlns:dc="http://purl.org/dc/elements/1.1/"
   xmlns:cc="http://creativecommons.org/ns#"
   xmlns:rdf="http://www.w3.org/1999/02/22-rdf-syntax-ns#"
   xmlns:svg="http://www.w3.org/2000/svg"
   xmlns="http://www.w3.org/2000/svg"
   xmlns:sodipodi="http://sodipodi.sourceforge.net/DTD/sodipodi-0.dtd"
   xmlns:inkscape="http://www.inkscape.org/namespaces/inkscape"
   width="15.999999"
   height="15.999999"
   viewBox="0 0 4.233333 4.2333332"
   version="1.1"
   id="svg59656"
   inkscape:version="1.0 (4035a4fb49, 2020-05-01)"
   sodipodi:docname="sound-muted-symbolic.svg">
  <defs
     id="defs59650" />
  <sodipodi:namedview
     inkscape:snap-midpoints="true"
     inkscape:snap-smooth-nodes="true"
     inkscape:snap-intersection-paths="true"
     inkscape:object-paths="true"
     id="base"
     pagecolor="#ffffff"
     bordercolor="#666666"
     borderopacity="1.0"
     inkscape:pageopacity="0.0"
     inkscape:pageshadow="2"
     inkscape:zoom="4.7332096"
     inkscape:cx="72.365677"
     inkscape:cy="-5.9069288"
     inkscape:document-units="px"
     inkscape:current-layer="layer1"
     inkscape:document-rotation="0"
     showgrid="true"
     units="px"
     inkscape:window-width="1920"
     inkscape:window-height="1016"
     inkscape:window-x="0"
     inkscape:window-y="0"
     inkscape:window-maximized="1">
    <inkscape:grid
       type="xygrid"
       id="grid59669"
       originx="-414.0729"
       originy="-67.204172" />
  </sodipodi:namedview>
  <metadata
     id="metadata59653">
    <rdf:RDF>
      <cc:Work
         rdf:about="">
        <dc:format>image/svg+xml</dc:format>
        <dc:type
           rdf:resource="http://purl.org/dc/dcmitype/StillImage" />
        <dc:title></dc:title>
      </cc:Work>
    </rdf:RDF>
  </metadata>
  <g
     inkscape:label="Layer 1"
     inkscape:groupmode="layer"
     id="layer1"
     transform="translate(-414.07291,-67.20417)">
    <g
       style="fill:#241f31"
       transform="matrix(0.26458333,0,0,0.26458333,414.07293,67.204165)"
       fill="#474747"
       id="g16">
      <path
         transform="translate(-7.5590552e-5,1.8897638e-5)"
         d="M 7.453125 2 L 4.5214844 4.9609375 L 8 8.4394531 L 8 2 L 7.453125 2 z M 11 3 L 11 5 C 11.607 5.789 12 6.76 12 8 C 12 9.241 11.607 10.22 11 11 L 11 11.439453 L 12.287109 12.726562 C 13.34008 11.684021 14 9.952001 14 8 C 14 5.834 13.261 3.98 12 3 L 11 3 z M 2 5 L 2 11 L 4.484375 11 L 7.5253906 14 L 8 14 L 8 10.5625 L 2.4375 5 L 2 5 z M 9 5 L 9 9.4394531 L 10.226562 10.666016 C 10.734406 9.9178051 11 9.0952939 11 8 C 11 6.743 10.688 5.784 10 5 L 9 5 z "
         style="marker:none;fill:#241f31"
         id="path10" />
    </g>
    <path
       id="path60"
       d="m 417.90147,71.336914 0.28098,-0.280987 -3.70443,-3.703902 -0.28072,0.280723 z"
       style="fill:#241f31;stroke:none;stroke-width:0.264583px;stroke-linecap:butt;stroke-linejoin:miter;stroke-opacity:1;fill-opacity:1" />
    <g
       style="fill:#2ec27e"
       transform="translate(-5.8208332)"
       id="g72" />
  </g>
</svg>

<svg xmlns="http://www.w3.org/2000/svg" width="16" height="16" viewBox="0 0 4.233 4.233">
    <g style="fill:#241f31" fill="#474747">
        <path transform="scale(.26458)" d="M7.453 2 4.521 4.96 8 8.44V2h-.547zM11 3v2c.607.789 1 1.76 1 3 0 1.241-.393 2.22-1 3v.44l1.287 1.287C13.34 11.684 14 9.952 14 8c0-2.166-.739-4.02-2-5h-1zM2 5v6h2.484l3.041 3H8v-3.438L2.437 5H2zm7 0v4.44l1.227 1.226C10.734 9.918 11 9.096 11 8c0-1.257-.312-2.216-1-3H9z" style="marker:none;fill:#241f31"/>
    </g>
    <path d="m417.901 71.337.281-.281-3.704-3.704-.28.28z" style="fill:#241f31;stroke:none;stroke-width:.264583px;stroke-linecap:butt;stroke-linejoin:miter;stroke-opacity:1;fill-opacity:1" transform="translate(-414.073 -67.204)"/>
</svg>
